src/icons/vm.svg

<svg width="16" height="16" xmlns="http://www.w3.org/2000/svg"><path fill-rule="evenodd" clip-rule="evenodd" d="M14.5 2h-13l-.5.5v10l.5.5H7v1H4v1h8v-1H9v-1h5.5l.5-.5v-10l-.5-.5zM14 12H2V3h12v9z"/></svg>

<svg width="16" height="16" viewBox="0 0 16 16" fill="none" xmlns="http://www.w3.org/2000/svg">
<path fill-rule="evenodd" clip-rule="evenodd" d="M14.5 2H1.5L1 2.5V12.5L1.5 13H7V14H4V15H12V14H9V13H14.5L15 12.5V2.5L14.5 2ZM14 12H2V3H14V12Z" fill="#C5C5C5"/>
</svg>
